X:1
T:Min hu
T:W. Peterson-Berger (1867-1942)
T:Text: E. van der Recke
T:Min hu
T:©CPDL Edition may be freely distributed, duplicated, performed and recorded PA Aglert
T:©CPDL Edition may be freely distributed, duplicated, performed and recorded PA Aglert
T:©CPDL Edition may be freely distributed, duplicated, performed and recorded PA Aglert
C:W. Peterson-Berger (1867-1942)
Z:©CPDL Edition may be freely distributed, duplicated, performed and recorded
Z:PA Aglert
%%score [ ( 1 2 ) ( 3 4 ) ]
L:1/8
Q:1/4=108
M:3/4
K:Db
V:1 treble nm="MusicXML Part"
V:2 treble 
V:3 bass nm="MusicXML Part"
V:4 bass 
V:1
"^Moderato"!mp! F"^dolce" |: A3 A FA | B>c B3 B |!<(! A3!<)! f ed |!>(! c4!>)! B2 | %5
w: 1.Og|kan du ej min|hu for- stå og|ind- res på min|færd, så|
w: |li- den små- fugl|ved det ej, han|har sin ving- e|kær, men|
 B3 A"^cresc." EF | G>!<(!A G3 B!<)! |!f! e3 d!>(! cB | A4!>)! A2 |!p! A3 A FA |!<(! B>c!<)! d3 d | %11
w: spörg den li- den|sang- fugl grå som|fly- ver her og|der. Så|spörg den, hvi den|flyr av land for|
w: mer dog hjem- mets|blomst i maj og|hjem- mets grön- ne|trær. Så|ja- ges jag som|fugl i höst helt|
 c3!>(! B A!>)!=G | F4!<(! F2 | =G>F E2!<)! c2 | c>!>(!B!>)!!<(! A3 F!<)! |!f! f3!>(! d AB!>)! | %16
w: vin- terns slud og|sne, men|ven- der hjem i-|gen på stand flux|so- len blir at|
w: of- te hid og|did, men|dra- ges af min|læng- sels lyss mod|dig til hver en|
!p! c4!<(! c2!<)! | e>f!f!!>(! d2 B2!>)! |!<(! c>d!<)!!mp! B3!>(! B!>)! |!p! (A2!<(! F2) (Ad)!<)! | %20
w: se, men|ven- der hjem i-|gen på stand flux|so- * len *|
w: tid, men|dra- ges af min|læng- sels lyss mod|dig * til *|
!>(! (e2 B2) c2!>)! |!p! d6- |1 d3 z z!mp! F :|2 d3 z z!p! F || A3 A!<(! FA | B>d B3!<)!!>(! A | %26
w: blir * at|se.|* 2.Den|* 3.Thi|al min hu i|höst og vår kun|
w: hver * en|tid.|||||
 =G3!>)!!<(! E _GA!<)! |!>(! F4 F2!>)! | F3 F DF | G>A G3 G |!<(! F3 d!<)! cB | %31
w: fly- ver dig i-|mod, og|som en sang- fugl|om dig slår, så|snart du er mig|
w: |||||
!>(! A4!>)!!<(! D2!<)! |!>(! A3 G!>)!!<(! DE | F>B B3 B!<)! | A>!f!f f2 e2 |!>(! d4 d2!>)! | %36
w: god, ja|som en sang- fugl|om dig slår, så|snart du er mig|god, så|
w: |||||
!mp! c4!>(! B2 | G4 C2!>)! |!p! D6- | D3 z z z |] %40
w: snart du|er mig|god.||
w: ||||
V:2
 F |: F3 F DF | =E>E E3 E | F3 F FF | =E4 E2 | !courtesy!_E3 C EE | E>F E3 G | G3 G GG | G4 G2 | %9
 F3 F DF | F>F B3 F | F3 F =EE | F4 B,2 | =B,>B, C2 E2 | D>D C3 C | F3 F F=G | =G4 G2 | %17
 !courtesy!_G>G F2 F2 | E>E D3 F | F4 F2 | G4 G2 | F6- |1 F3 z z F :|2 F3 z z F || F3 F DF | %25
 F>F F3 F | E3 E EE | E4 E2 | D3 D B,D | D>D D3 D | D3 D EF | _C4 C2 | B,3 B, DD | D>F F3 F | %34
 F>A G2 G2 | F4 F2 | G4 G2 | E4 C2 | A,6- | A,3 z z z |] %40
V:3
!mp! A, |:"^dolce" A,3 A, A,A, | =G,>G, G,3 G, |!<(! A,3!<)! A, A,A, |!>(! =G,4!>)! G,2 | %5
 !courtesy!_G,3 G,"^cresc." G,A, | B,>!<(!C B,3!<)! D |!f! G3 F!>(! ED | C4!>)! C2 |!p! D3 D DD | %10
!<(! D>E!<)! F3 D | D3!>(! D C!>)!C | C4!<(! B,2 | A,>A, A,2!<)! A,2 | %14
 =G,>!>(!G,!>)!!<(! A,3 C!<)! |!f! A,3!>(! A, DF!>)! |!p! =E4!<(! C2!<)! | C>C!f!!>(! D2 D2!>)! | %18
!<(! B,>!<)!=A,!mp!!>(! B,3 D!>)! |!p! D4!<(! D2!<)! |!>(! D4 E2!>)! |!p! A,6- |1 %22
 A,3 z z!mp! A, :|2 A,3 z z!p! A, || _C3 C!<(! A,C | D>B, D3!<)!!>(! _C | %26
 B,3!>)!!<(! B, __B,B,!<)! |!>(! A,4!>)! =A,2 | F,3 F, F,F, | =E,>E, E,3 E, |!<(! F,3!<)! F FF, | %31
!>(! F,4!>)!!<(! F,2!<)! |!>(! D,3!>)! D,!<(! B,B, | B,>D D3 D!<)! | D>!f!D C2 C2 |!>(! D4!>)! D2 | %36
!mp! D4!>(! D2 | (D2 B,2) G,2!>)! |!p! F,6- | F,3 z z z |] %40
V:4
 D, |: D,3 D, D,D, | D,>D, D,3 D, | D,3 D, D,D, | D,4 D,2 | D,3 D, D,D, | D,>D, D,3 D, | %7
 D,3 D, D,D, | D,4 D,2 | D3 D CC | B,>B, B,3 A, | =G,3 G, C,C, | D,4 D,2 | =D,>D, E,2 E,2 | %14
 =E,>E, F,3 A, | D,3 D, DD | C4 C2 | B,>=A, B,2 B,2 | F,>F, G,3 =G, | A,4 A,2 | A,4 A,2 | D,6- |1 %22
 D,3 z z D, :|2 D,3 z z D, || D,3 D, D,D, | D,>D, D,3 D, | D,3 D, D,D, | D,4 C,2 | %28
 B,,3 B,, B,,B,, | B,,>B,, B,,3 B,, | B,,3 B,, C,D, | E,4 D,2 | G,,3 G,, G,G, | =G,>G, G,3 G, | %34
 A,>A, =A,2 A,2 | B,4 B,2 | E,4 E,2 | A,4 A,,2 | D,6- | D,3 z z z |] %40

